logos/browserslist.svg

<?xml version="1.0" encoding="UTF-8"?>
<svg width="256px" height="256px" viewBox="0 0 256 256" version="1.1" xmlns="http://www.w3.org/2000/svg" xmlns:xlink="http://www.w3.org/1999/xlink" preserveAspectRatio="xMidYMid">
		<g>
				<path d="M128,0 C198.692,0 256,57.308 256,128 C256,198.692 198.692,256 128,256 C57.308,256 0,198.692 0,128 C0,57.308 57.308,0 128,0" fill="#FFD539"></path>
				<path d="M174.9717,58.3999 C176.0177,62.0339 173.2567,94.8579 225.7137,114.6289 C221.9797,122.1929 205.3137,129.3579 175.4287,136.1139 C171.8877,92.3279 163.6577,70.5139 174.9717,58.3999" fill="#FFFFFF"></path>
				<path d="M183.8779,132.8096 C181.5829,133.3256 179.2619,133.7866 176.9129,134.1936 C176.3439,123.6196 175.1029,114.3716 173.8799,106.0976 C177.7609,106.8206 181.5359,104.3416 182.3689,100.4576 C183.2159,96.5086 180.7009,92.6206 176.7519,91.7726 C175.7399,91.5556 174.6939,91.5556 173.6839,91.7726 C176.1189,92.4386 177.5549,94.9546 176.8879,97.3896 C176.3879,99.2186 174.8469,100.4826 173.0789,100.7176 C170.6789,84.6656 169.0799,72.2936 174.2769,60.4906 C174.2019,73.6356 179.9019,85.4746 190.1329,95.4656 C199.4929,104.6106 212.5239,111.7036 222.8699,114.3536 C223.4439,115.0386 223.4719,115.8736 222.7249,117.0156 C221.8809,117.6716 220.9449,118.3176 219.9739,118.8886 C210.1049,124.6736 198.0299,129.6276 183.8779,132.8096 M231.9049,108.0686 C231.9049,102.0086 226.9929,97.0966 220.9339,97.0966 C215.7849,97.0966 211.4769,100.6486 210.2939,105.4326 C193.3389,96.6076 173.9489,78.7076 178.6889,52.8556 C182.2149,47.9636 187.1269,43.0516 193.9349,37.8896 C181.2019,36.3966 167.6669,38.7056 154.7749,43.6566 C154.5729,36.9556 155.3769,29.7806 157.4749,21.3666 C145.1149,24.5196 133.3609,31.4706 123.1369,40.6446 C120.5319,34.4456 118.7139,27.4296 117.6539,18.7936 C107.1899,26.2056 98.6729,36.9836 92.4049,49.2946 C87.7109,44.4196 83.4659,38.4906 79.3509,30.7506 C72.2519,41.3986 68.1659,54.4806 66.7179,68.1896 C60.7219,65.3336 54.7539,61.3716 48.2799,55.7446 C45.4709,68.2176 46.3389,81.8806 49.8929,95.1856 C43.1329,94.7066 36.0069,93.1506 27.7579,90.1486 C29.6069,102.8106 35.3229,115.2656 43.4199,126.4206 C37.0539,128.3106 29.9819,129.3726 21.4079,129.5236 C27.6939,140.7196 37.5389,150.3266 49.1469,157.8506 C43.7939,162.0336 37.4309,165.6526 29.2659,168.9516 L29.2679,168.9516 C39.1059,177.1166 51.6739,182.5456 65.1409,185.4196 C61.6769,191.0756 57.1159,196.5866 50.8539,202.4266 C62.9409,206.5156 76.5889,207.0866 90.1649,204.9586 C88.9729,211.5776 86.6909,218.4486 82.8759,226.2696 L82.8779,226.2696 C95.6629,225.7536 108.6479,221.3726 120.5869,214.4866 C121.8659,221.1256 122.2059,228.3976 121.4419,237.1226 C147.2189,226.0166 167.2429,197.2416 174.3039,168.7566 C176.2199,163.6066 177.2389,156.1566 177.2389,145.8726 C177.2389,143.1146 177.1729,140.4626 177.0769,137.8676 C197.9279,134.3276 213.1019,127.1566 221.8219,122.0426 C225.0199,120.1676 228.2619,117.4136 229.3019,115.1556 C230.9229,113.2436 231.9049,110.7716 231.9049,108.0686" fill="#000000"></path>
		</g>
</svg>

<svg width="256" height="256" xmlns="http://www.w3.org/2000/svg" preserveAspectRatio="xMidYMid">
	<path d="M128 0c70.692 0 128 57.308 128 128 0 70.692-57.308 128-128 128C57.308 256 0 198.692 0 128 0 57.308 57.308 0 128 0" fill="#FFD539"/>
	<path d="M174.972 58.4c1.046 3.634-1.715 36.458 50.742 56.229-3.734 7.564-20.4 14.729-50.285 21.485-3.541-43.786-11.771-65.6-.457-77.714" fill="#FFF"/>
	<path d="M183.878 132.81c-2.295.516-4.616.977-6.965 1.384-.57-10.574-1.81-19.822-3.033-28.096 3.88.723 7.656-1.756 8.489-5.64a7.315 7.315 0 0 0-8.685-8.685 4.573 4.573 0 0 1-.605 8.945c-2.4-16.052-4-28.424 1.198-40.227-.075 13.145 5.625 24.984 15.856 34.975 9.36 9.145 22.39 16.238 32.737 18.888.574.685.602 1.52-.145 2.662a26.071 26.071 0 0 1-2.751 1.873c-9.87 5.785-21.944 10.739-36.096 13.92m48.027-24.74c0-6.06-4.912-10.972-10.971-10.972-5.15 0-9.457 3.552-10.64 8.336-16.955-8.825-36.345-26.725-31.605-52.577 3.526-4.892 8.438-9.804 15.246-14.966-12.733-1.493-26.268.816-39.16 5.767-.202-6.701.602-13.876 2.7-22.29-12.36 3.153-24.114 10.104-34.338 19.278-2.605-6.2-4.423-13.215-5.483-21.851-10.464 7.412-18.981 18.19-25.25 30.5-4.693-4.874-8.938-10.803-13.053-18.543-7.1 10.648-11.185 23.73-12.633 37.439-5.996-2.856-11.964-6.818-18.438-12.445-2.81 12.473-1.941 26.136 1.613 39.44-6.76-.478-13.886-2.034-22.135-5.036 1.849 12.662 7.565 25.117 15.662 36.272-6.366 1.89-13.438 2.952-22.012 3.103 6.286 11.196 16.13 20.803 27.739 28.327-5.353 4.183-11.716 7.802-19.881 11.1h.002c9.838 8.166 22.406 13.595 35.873 16.469-3.464 5.656-8.025 11.167-14.287 17.007 12.087 4.089 25.735 4.66 39.31 2.532-1.191 6.619-3.473 13.49-7.288 21.31h.002c12.785-.515 25.77-4.896 37.709-11.782 1.279 6.639 1.619 13.91.855 22.636 25.777-11.106 45.8-39.881 52.862-68.366 1.916-5.15 2.935-12.6 2.935-22.884 0-2.758-.066-5.41-.162-8.005 20.85-3.54 36.025-10.711 44.745-15.825 3.198-1.875 6.44-4.63 7.48-6.887a10.922 10.922 0 0 0 2.603-7.087"/>
</svg>
